X:1
T:Thule, the period of cosmography - Weelkes
T:#
%%score { 1 | 2 } 3 { 4 | 5 } 6
L:1/8
Q:1/4=120
M:2/2
K:Eb
V:1 treble nm="Soprano 1" snm="S"
V:2 treble 
V:3 treble nm="Alto" snm="A"
V:4 treble-8 nm="Tenor 1" snm="T"
V:5 treble-8 
V:6 bass nm="Bass" snm="B"
V:1
"^Thule, the period of cosmography"!mf! B8 | B8 x4 | z8 x4 | z8 | z4 z2 e2 | %5
w: Thu-|le,|||the|
 B3 c d3"^Thomas Weelkes\n(c.1576-1623)" e | x8 |[M:2/2] f2 d2 c2 f2 | B3 c d3 e | f2 F2 F2 z2 | %10
w: pe- riod of cos-||mo- gra- phy, the|pe- riod of cos-|mo- gra- phy,|
 z8 | e8 | e6 c2 | G3 A B2 c2- | c2 B4 =A2 | B4 z2 f2 | B3 c d3 e | f2 B2 B4 | z4 B2 F2 | G6 G2 | %20
w: |Thu-|le, the|pe- riod of cos\-|* mo- gra-|phy, the|pe- riod of cos-|mo- gra- phy,|of cos-|mo- gra-|
 c4 z4 | z4 z2!f! c2 | d3 B f4 | B4 z4 | z4 z2 E2 | G3 E e4 | e2!ff! B4 B2 | c (ded cBcd | %28
w: phy,|Doth|vaunt of Hec-|la,|doth|vaunt of Hec-|la, whose sul-|phu- ri\- * * * * * *|
 efgf ed) e2 | d4 B4- | B4 B4 | B (AGF EFGA | BAGF EFG)A | B2 B2 c4- | c4 c4 | _d6 d2 | %36
w: * * * * * * ous|fire, whose|* sul-|phu- ri\- * * * * * *|* * * * * * * ous|fire Doth melt|* the|fro- zen|
 c4!mf! c2 cd | e4 A2 AB | c4 z4 | F2 FG =A (B2 A) | B4!f! F4 x2 |[M:2/2] F3 F F2 F4 | F2 x6 | %43
w: clime and thaw the|sky, and thaw the|sky,|and thaw the sky, the *|sky; Trin-|a- cri- an Aet-|na's|
[M:2/2] F2 F2 E4 | z2 B2 c3 d | ee z2 z4 | z2 d2 e3 f | gg e2 d4 | c4 B4- | B2 B2 B4 | B6 B2 | %51
w: flames as- cend,|as- cend not|high- er,|as- cend not|high- er, as- cend|not high\-|* er. These|things seem|
 _d8 | c8 | z4!mf! c4- | c4 c4 | d8- | d4 d4 | c4 B2 B2- | B2 (=AG A4) | B4 F4 | F2 G2 A3 A | G8 | %62
w: won-|drous,|yet|* more|won\-|* drous|I, more won\-|* drous * *|I, Whose|heart with fear doth|freeze,|
 z8 | z4!mp! B4 | G4 z2 G2 | C4 F4 | F8- | F8 | z8 | z8 | z8 |"^J" z4!p! A4 | G8 | %73
w: |with|love doth|fry, doth|fry|||||with|love,|
 F4[Q:1/4=118] f4- |[Q:1/4=115] f4[Q:1/4=112] _d4 |[Q:1/4=109] c4[Q:1/4=106] (B4- | %76
w: with love|* doth|fry, doth|
[Q:1/4=103] B4[Q:1/4=101] =A4) |[Q:1/4=100] !fermata!B8 |] %78
w: |fry.|
V:2
 z8 | z8 x4 |!mf! B8 x4 | B8 | z2 B2 E3 F | G3 A B2 G2 | x8 |[M:2/2] F2 B2 B2 =A2 | B8 | %9
w: ||Thu-|le,|the pe- riod|of cos- mo- gra-||phy, cos- mo- gra-|phy,|
 z2 f2 B3 c | d2 e2 f2 B2 | B8 | z8 | z8 | f8 | f8 | z2 f2 B3 c | d3 e f2 B2 | B8 | z2!f! B2 e3 c | %20
w: the pe- riod|of cos- mo- gra-|phy,|||Thu-|le,|the pe- riod|of cos- mo- gra-|phy,|Doth vaunt of|
 f4 d4 | e4 f4- | f2 f2 z2 F2 | G3 E B4- | B4 B4 | z4!ff! B4- | B4 e4 | e (fgf edcB | cded cB) c2 | %29
w: Hec- la,|of Hec-|* la, doth|vaunt of Hec\-|* la,|whose|* sul-|phu- ri\- * * * * * *|* * * * * * ous|
 =B4 d4- | d4 d4 | B3 (AGFEF | GABA GFE)F | G2 G2 G4- | G4 A4 | A6 A2 | A4!mf! A2 AB | c4 c2 cd | %38
w: fire, whose|* sul-|phu- ri\- * * * *|* * * * * * * ous|fire Doth melt|* the|fro- zen|clime and thaw the|sky, and thaw the|
 e4 B2 Bc | ddde f2 c2 | d4!f! B4 x2 |[M:2/2] B3 B B2 x4 | B4 B2 x2 |[M:2/2] B8 | z8 | z2 c2 d3 e | %46
w: sky, and thaw the|sky, and thaw the sky, the|sky; Trin-|a- cri- an|Aet- na's|flames||as- cend not|
 ff F2 c2 c2 | BB c4 B2- | B2 =A2 B2 B2 | z4 z2 G2 | G6 G2 | A8 | A8 | z4!mf! G4- | G4 G4 | =B8- | %56
w: high- er, as- cend not|high- er, as- cend|* not high- er.|These|things seem|won-|drous,|yet|* more|won\-|
 B4 =B4 | c4 _d2 d2 | c6 c2 | B8 | z8 | z4 z2!mp! B2 | c2 d2 e3 e | d8 | z4 c4 | =A4 (B4- | %66
w: * drous|I, yet more|won- drous|I,||Whose|heart with fear doth|freeze,|with|love doth|
 B4 =A4) | B4 z2 F2 | F2 G2 A3 A | G4 z4 | z8 | z8 | z4!p! G4 | c8 | B8 | =A4 F4 | F6 F2 | %77
w: |fry, whose|heart with fear doth|freeze,|||with|love|doth|fry, with|love doth|
 !fermata!F8 |] %78
w: fry.|
V:3
 z8 | z8 x4 | z2!mf! E2 B,3 C x4 | D3 E F2 G2 | F3 F G2 A2 | G2 z2 z4 | x8 |[M:2/2] z8 | z8 | B8 | %10
w: ||The pe- riod|of cos- mo- gra-|phy, cos- mo- gra-|phy,||||Thu-|
w: ||||||||||
 B6 B2 | G3 A B2 c2 | B2 E2 E3 F | (GA B2) G2 G2 | F8 | F8 | F4 z2 F2 | B,3 C D3 E | F2 G2 F4 | %19
w: le, the|pe- riod of cos-|mo- gra- phy, of|cos\- * * mo- gra-|phy,|Thu-|le, the|pe- riod of cos-|mo- gra- phy,|
w: |||||||||
 z4 z2!f! E2 | A3 F B4 | E2 G2 F4- | F4 F4 | z8 | z2 F2 G3 E | B4 G4 |!ff! G6 G2 | G (FEF GFEF | %28
w: Doth|vaunt of Hec-|la, of Hec-|* la,||doth vaunt of|Hec- la,|whose sul-|phu- ri\- * * * * * *|
w: |||||||||
 GFEF GF) G2 | G4 G4- | G4 G4 | (GA) B4 E2 | B,8 | z2 E2 =E4- | E4 F4 | F6 F2 |!>(! E8-!>)! | %37
w: * * * * * * ous|fire. whose|* sul-|phu\- * ri- ous|fire|Doth melt|* the|fro- zen|clime|
w: |||||||||
 E4 z4 |!mf! E2 EF GGGA | B2 B,2 F4- | F4!f! D4 x2 |[M:3/4] D3 D D2 x4 | D4 D2 x2 | %43
w: |and thaw the sky, and thaw the|sky, the sky;|* Trin-|||
w: ||||a- cri- an|Aet- na's|
[M:2/2] D2 D2 G3 A | B2 B2 z2 A2 | G2 =A2 B2 B2 | z2 B,2 C3 D | E2 E2 z4 | z4 z2 G2 | F3 F GG E2 | %50
w: flames as- cend not|high- er, as-|cend not high- er,|as- cend not|high- er,|as-|cend not high- er. These|
w: |||||||
 E6 E2 | (F4 _D4) | E8 |!mf! E8- | E4 E4 | G8- | G4 G4 | C4 F2 F2 | F4 F4 | F4 z2 B,2 | %60
w: things seem|won\- *|drous,|yet|* more|won\-|* drous|I, yet more|won- drous|I, Whose|
w: ||||||||||
 C2 E2 E2 D2 | E6!mp! E2 | G2 B2 B2 =A2 | B4 z2 B,2 | C4 C4 | F8 | z8 | z4 z2 B,2 | C2 E2 E2 D2 | %69
w: heart with fear doth|freeze, whose|heart with fear doth|freeze, with|love doth|fry,||whose|heart with fear doth|
w: |||||||||
 E4 B,4 | B,2 C2 _D3 D | C4!p! F4 | =E6 E2 | F8 | B,4 F4- | F4 (_D4 | C8) | !fermata!B,8 |] %78
w: freeze, whose|heart with fear doth|freeze, with|love doth|fry,|with love|* doth||fry.|
w: |||||||||
V:4
 z8 | z12 | z8 x4 | z8 | z8 | z2!mf! e2 B3 c |[M:2/2][K:treble-8] d3 e f2 f2 | d2 f2 B3 c | %8
w: |||||The pe- riod|of cos- mo- gra-|phy, the pe- riod|
 d3 e f2 g2 | f2 e2 e2 d2 | e2 B2 E3 F | G3 A B2 c2 | B4 B2 G2 | =A2 B2 c4 | z2 f2 B3 c | %15
w: of cos- mo- gra-|phy, cos- mo- gra-|phy, the pe- riod|of cos- mo- gra-|phy, of cos-|mo- gra- phy,|the pe- riod|
 d3 e f2 F2 | F4 z2 B2- | B2 G2 B3 B | B8 | z2!f! F2 f3 d | g4 c4 | z2 B2 d3 B | e4 d2 e2 | %23
w: of cos- mo- gra-|phy, of|* cos- mo- gra-|phy,|Doth vaunt of|Hec- la,|doth vaunt of|Hec- la, of|
 f2 B4 z2 | z4!ff! e4- | e4 e4 | e (dcd efgf | edcd efe)c | d4 d4- | d4 d4 | e4 E4 | E8 | %32
w: Hec- la,|whose|* sul-|phu- ri\- * * * * * *|* * * * * * * ous|fire, whose~|* sul-|phu- rious|fire|
 z2 G2 G4- | G4 F4 | F6 F2 |!>(! A8!>)! |!mf! A2 AB c4 | c2 cd e2 E2 | B4 z4 | z4!f! B4 | %40
w: Doth melt|* the|fro- zen|clime|and thaw the sky,|and thaw the sky, the|sky;|Trin-|
[M:2/2] B3 B B2 B4 | B2 x8 |[M:2/2][K:treble-8] B8 | E2 e4 z2 | z2 F2 B3 c | d2 d2 z2 g2 | %46
w: a- cri- an Aet-|na's|flames|as- cend,|as- cend not|high- er, as-|
 g2 g2 f2 f2 | z4 z2 B2 | d3 d e2 e2 | z2 B2 B3 E | A8 | A8 |!mf! G8- | G4 G4 | G6 G2 | G4 z4 | %56
w: cend not high- er,|as-|cend not high- er.|These things seem|won-|drous,|yet|* more|won- drous|I,|
 F4 F2 (f2- | f2 e2) c4 | d8 | z8 | z4 z2!mp! e2 | e2 d2 c3 c | B4 z2 d2 | G8 | z4 d4 | c6 c2 | %66
w: yet more won\-|* * drous|I,||Whose|heart with fear doth|freeze. with|love,|with|love doth|
 d8 | z8 | z4 G4 | F2 A2 A2 G2 | A8 |"^." z4!p! G4 | C4 C4 | F8 | z4 F2 f2- | f2 (e2 c4) | %76
w: fry,||whose|heart with fear doth|freeze,|with|love doth|fry,|with love|* doth *|
 !fermata!d8 | x8 |] %78
w: fry.||
V:5
 z8 | z4 z2!mf! e2 x4 | E3 F G3 A x4 | B3 c d2 e2- | e2 d2 c3 d | e4 z4 |[M:2/2][K:treble-8] z8 | %7
w: |The|pe- riod of cos-|mo- gra- phy, of|* cos- mo- gra-|phy,||
 z4 z2 f2 | B3 c d3 e | f2 (g2 f4) | e6 e2 | E3 F GE e2- | e2 e2 d2 e2- | e2 d2 c3 c | d8 | z8 | %16
w: the|pe- riod of cos-|mo- gra\- *|phy, the|pe- riod of cos- mo\-|* gra- phy, of|* cos- mo- gra-|phy,||
 z2 f2 B3 c | dd (e4 d2) | e8 | f4 z4 |!f! G4 =A3 F | B4 B4 | z4 z2 B2 | d3 B e4- | e4 B4 | %25
w: the pe- riod|of cos- mo\- *|gra-|phy,|Doth vaunt of|Hec- la,|doth|vaunt of Hec\-|* la,|
!ff! B6 G2 | G6 G2 | G8 | G4 B4- | B4 B4 | E (FGA BAGF | EFGA BAG)F | E2 G2 c4- | c4 A4 | A6 A2 | %35
w: whose sul-|phu- ri-|ous|fire, whose|* sul-|phu- ri\- * * * * * *|* * * * * * * ous|fire Doth melt|* the|fro- zen|
!>(! c8!>)! |!mf! c2 cd e2 E2 | A4 z4 | z4 z2 F2 | B4 z2!f! F2 |[M:2/2] F3 F F2 x4 | F4 F2 x4 | %42
w: clime|and thaw the sky, the|sky,|the|sky; Trin-|a- cri- an|Aet- na's|
[M:2/2][K:treble-8] F4 z4 | z2 E2 A3 B | cc f2 f4 | B4 e2 e2 | z2 c2 d3 e | f4 d2 z2 | z4 z2 E2 | %49
w: flames|as- cend not|high- er, as- cend|not high- er,|as- cend not|high- er.|These|
 E6 G2 | F8 | E8 | z4!mf! c4- | c4 e4 | d8- | d4 d4 | f4 B2 B2 | c4 F4 | F4 B4 | A2 G2 F3 F | E8 | %61
w: things seem|won-|drous,|yet|* more|won\-|* drous|I, yet more|won- drous|I, Whose|heart with fear doth|freeze,|
 z8 | z4!mp! G4 | =E8 | F8- | F8 | B4 B4 | A2 G2 F3 F | E8 | z8 | z4 z2!p! F2 | c8 | z4 F4 | %73
w: |with|love|doth||fry, whose|heart with fear doth|freeze,||with|love,|with|
 _d4 B4 | c4 (_d3 e) | f4 F4 | !fermata!F8 | x8 |] %78
w: love doth|fry, with *|love doth|fry.||
V:6
 z8 | z8 x4 | z12 | z8 | z8 | z8 |[M:2/2] z8 |!mf! B,8 | B,8- | B,4 z2 B,2 | E,3 F, G,3 A, | %11
w: |||||||Thu-|le,|* the|pe- riod of cos-|
 B,2 C2 G,2 A,2 | E,3 F, G,2 E,2 | F,6 F,2 | B,,8 | z4 B,,4- | B,,4 B,,4 | B,,6 B,,2 | E,8 | %19
w: mo- gra- phy, the|pe- riod of cos-|mo- gra-|phy,|of|* cos-|mo- gra-|phy,|
 z4!f! B,,4 | E,3 C, F,4 | B,,8 | z2 E,2 G,3 E, | B,4 E,4- | E,4!ff! E,4- | E,4 E,4 | C,6 C,2 | %27
w: Doth|vaunt of Hec-|la,|doth vaunt of|Hec- la,|* whose|* sul-|phu- ri-|
 C,8 | G,,4 G,4- | G,4 G,4 | G, (F,E,F, G,A,B,A, | G,F,E,F, G,A,B,)A, | G,2 E,2 C,4- | C,4 F,4 | %34
w: ous|fire, whose|* sul-|phu- ri\- * * * * * *|* * * * * * * ous|fire Doth melt|* the|
 _D,6 D,2 |!>(! A,,8-!>)! |!mf! A,,8 | z8 | z8 | z4!f! B,,4 |[M:3/4] B,,3 B,, B,,2 x4 | %41
w: fro- zen|clime||||Trin-|a- cri- an|
 B,,4 B,,2 x4 |[M:2/2] B,,2 B,,2 E,3 F, | G,2 G,2 z4 | z8 | z8 | z8 | z2 F,2 G,3 A, | %48
w: Aet- na's|flames as- cend not|high- er,||||as- cend not|
 B,B, B,,2 E,2 E,2 | z2 E,2 E,3 E, | _D,8 | A,,8 |!mf! C,8- | C,4 C,4 | G,,8- | G,,4 G,,4 | %56
w: high- er, not high- er.|These things seem|won-|drous,|yet|* more|won\-|* drous|
 =A,,4 B,,2 B,,2 | F,6 F,2 | B,,8 | z8 | z8 | z8 | z8 | z8 | z8 | z8 | z8 | z8 | z4!mp! E,4 | %69
w: I, yet more|won- drous|I,||||||||||Whose|
 _D,2 C,2 B,,3 B,, | A,,8 | z4!p! C,4 | =A,,8 | B,,8 | F,8 | F,8 | !fermata!B,,8 | x8 |] %78
w: heart with fear doth|freeze,|with|love|doth|fry,|doth|fry.||

